packages/flutter/assets/icons/free.svg

<?xml version="1.0" encoding="UTF-8"?>
<svg width="24px" height="24px" viewBox="0 0 24 24" version="1.1" xmlns="http://www.w3.org/2000/svg" xmlns:xlink="http://www.w3.org/1999/xlink">
    <title>free</title>
    <g id="free" stroke="none" stroke-width="1" fill="none" fill-rule="evenodd">
        <path d="M19.9287465,7.24275212 C20.0550345,7.45323224 20.0083989,7.71928964 19.830171,7.87559815 L19.7572479,7.92874646 L14.0575571,11.3477892 C14.2183789,11.4044572 14.3822956,11.4721686 14.5468202,11.5524145 C15.7572235,12.1427821 16.5,13.2296374 16.5,14.8567213 C16.5,16.5604285 15.6153831,17.6847873 14.1938035,18.2825301 L14.1938035,18.2825301 L14.0526695,18.3397516 C13.5393071,18.5403673 12.9713021,18.6822007 12.4995334,18.7113715 L12.5,20.5 C12.5,20.7761424 12.2761424,21 12,21 C11.7545401,21 11.5503916,20.8231248 11.5080557,20.5898756 L11.5,20.5 L11.4997187,18.7072199 C9.95848818,18.6226816 8.83692381,18.1349774 8.17094644,17.2184358 C8.00862271,16.9950402 8.05813128,16.6823528 8.28152693,16.5200291 C8.50492258,16.3577054 8.81760992,16.4072139 8.97993366,16.6306096 C9.49951889,17.3456811 10.4900439,17.7205445 12,17.7205445 L12,17.7205445 L12.1534814,17.720166 C12.2353932,17.7196614 12.276487,17.7186522 12.2767627,17.7171384 C12.363427,17.7110567 12.459281,17.701543 12.5602591,17.6883572 C12.9823399,17.6332414 13.4118035,17.5265389 13.8061965,17.3607053 C14.8818016,16.9084372 15.5,16.1226996 15.5,14.8567213 C15.5,13.6288933 14.9884992,12.8804482 14.1084404,12.4512044 C13.7904352,12.2960991 13.4444722,12.1948542 13.0976389,12.1384655 C12.9736719,12.1183108 12.8677205,12.1063215 12.7856873,12.0999549 L12.8019244,12.101 L4.75724788,16.9287465 C4.52045774,17.0708205 4.21332762,16.994038 4.07125354,16.7572479 C3.94496547,16.5467678 3.99160114,16.2807104 4.16982901,16.1244018 L4.24275212,16.0712535 L12.3183932,11.2244739 C12.3677118,11.1794841 12.4260705,11.1442358 12.4904259,11.1217724 L19.2427521,7.07125354 C19.4795423,6.92917946 19.7866724,7.00596199 19.9287465,7.24275212 Z M12,2 C12.2454599,2 12.4496084,2.17687516 12.4919443,2.41012437 L12.5,2.5 L12.5006722,4.44465937 C14.0055931,4.53256667 15.4388382,5.1516065 16.123303,6.36385382 C16.2590728,6.60431414 16.1742044,6.90930894 15.9337441,7.04507877 C15.6932838,7.1808486 15.388289,7.0959802 15.2525191,6.85551988 C13.9349013,4.52190274 8.5,5.20416035 8.5,7.84947405 C8.5,9.03723183 8.87272302,9.79472039 9.48804451,10.2509235 C9.85054454,10.5196833 10.2134482,10.6325844 10.4282742,10.6531979 C10.7031541,10.6795738 10.9046063,10.9237899 10.8782303,11.1986697 C10.8518544,11.4735496 10.6076384,11.6750018 10.3327585,11.6486258 C9.95245546,11.6121341 9.42266548,11.4473138 8.89247187,11.054225 C8.01997062,10.4073472 7.5,9.35060592 7.5,7.84947405 C7.5,5.8446225 9.42618441,4.66161387 11.5005302,4.4634521 L11.5,2.5 C11.5,2.22385763 11.7238576,2 12,2 Z" id="Line-6" fill="#303846"></path>
    </g>
</svg>

<svg xmlns="http://www.w3.org/2000/svg" width="24" height="24" viewBox="0 0 24 24"><path fill-rule="evenodd" d="M19.929 7.243a.5.5 0 0 1-.099.633l-.073.053-5.7 3.419c.161.056.325.124.49.204 1.21.59 1.953 1.678 1.953 3.305 0 1.703-.885 2.828-2.306 3.426l-.141.057c-.514.2-1.082.342-1.553.371V20.5a.5.5 0 0 1-.992.09l-.008-.09v-1.793c-1.542-.084-2.663-.572-3.33-1.489a.5.5 0 1 1 .81-.587c.52.715 1.51 1.09 3.02 1.09h.153c.082-.001.123-.002.124-.004a4.87 4.87 0 0 0 1.53-.356c1.075-.453 1.693-1.238 1.693-2.504 0-1.228-.512-1.977-1.392-2.406a3.648 3.648 0 0 0-1.01-.313 3.814 3.814 0 0 0-.312-.038l.016.001-8.045 4.828a.5.5 0 0 1-.587-.805l.073-.053 8.075-4.847a.5.5 0 0 1 .172-.102l6.753-4.05a.5.5 0 0 1 .686.17zM12 2a.5.5 0 0 1 .492.41l.008.09v1.945c1.506.088 2.939.707 3.623 1.919a.5.5 0 0 1-.87.492C13.935 4.522 8.5 5.204 8.5 7.849c0 1.188.373 1.946.988 2.402.363.269.725.382.94.402a.5.5 0 1 1-.095.996c-.38-.037-.91-.202-1.44-.595C8.02 10.407 7.5 9.351 7.5 7.85c0-2.004 1.926-3.187 4-3.386V2.5A.5.5 0 0 1 12 2z"/></svg>
